X:1
T:Title
%%score { ( 1 3 ) | ( 2 4 ) }
L:1/8
M:6/4
K:Eb
V:1 treble nm="Grand Piano"
V:3 treble 
V:2 bass 
V:4 bass 
V:1
 z6 z4[Q:1/4=114] EF | G2 [EB]2 [FB]2 [GB]2 [GB]2 [AB]2 | [Ge]4 [Ac]2 [GB]4 [EG][FA] | %3
 [GB]2 [AB]2 B2 c2 B2 G2 | [EG]4 [EF]2 [DF]4 EF | G2 B2 [FB]2 [GB]2 [GB]2 [AB]2 | %6
 [Ge]4 [Ac]2 [GB]4 [GB][GB] | B2 =A2 B2 c2 d2 e2 | d4 c2 B4- [AB]2 | [EGB]4 [B,EG]2 [Ge]6 | %10
 [Ec]4 [CEA]2 [CEe]6 | [Ad]4 [Ad]2 [FAd]4 [DAc]2 | [EAc]4 [EGB]2 [B,EG]6 | [EGB]4 [B,EG]2 [Ge]6 | %14
[M:15/8] c3- c A2 e3- e6 |[M:6/4] e4 [DAB]2 [EGB]4 [CEA]2 |[M:5/4] [B,EG]4 [A,DF]2 [G,E]4 |] %17
V:2
 z6 z4 [E,G,][E,A,E] | [E,B,E]2 [D,G,]2 [E,A,]2 [E,B,]2 [E,E]2 [E,C]2 | %2
 [F,B,]4 [E,E]2 [E,E]4 [E,B,][E,B,] | %3
 [E,E]2 [F,D]2[K:treble] [G,E]2 [A,EA]2[K:bass] [G,E]2 [E,B,E]2 | %4
 [C,=A,]4 [F,A,]2 [B,,B,]4 [E,G,][E,_A,E] | [E,B,E]2 [E,G,E]2 [E,A,]2 [E,B,]2 [E,E]2 [E,C]2 | %6
 [E,B,]4 [E,E]2 [E,E]4 [=E,_D][E,D] | [F,DF]2 [F,CE]2 [F,B,D]2 [F,=A,F]2 [F,B,F]2 [F,CF]2 | %8
 [F,B,F]4 [F,=A,E]2 z4 D2 | E,4 E,2 [E,B,]6 | [A,,A,]4 [A,,A,]2 [A,,A,]6 | %11
 [B,,B,]4 [B,,B,]2 [B,,B,]4 B,,2 | E,4 E,2 E,6 | E,4 E,2 [E,B,]6 | %14
[M:15/8] [A,E]3- [A,E] [A,CE]2 [A,CE]3- [A,CE]6 |[M:6/4] [G,B,E]4 F,2 E,4 A,,2 | %16
[M:5/4] B,,4 B,,2 E,4 |] %17
V:3
 x12 | x12 | x12 | x12 | x12 | x12 | x12 | x12 | z6 .[B,D]6 | x12 | x12 | x12 | x12 | x12 | %14
[M:15/8] x15 |[M:6/4] x12 |[M:5/4] x10 |] %17
V:4
 x12 | x12 | x12 | x4[K:treble] x4[K:bass] x4 | x12 | x12 | x12 | x12 | z6 B,,6 | x12 | x12 | x12 | %12
 x12 | x12 |[M:15/8] x15 |[M:6/4] x12 |[M:5/4] x10 |] %17

